apps/22/simplescreenrecorder-paused.svg

<?xml version="1.0" encoding="UTF-8"?>
<svg id="d" width="22" height="22" version="1.1" xmlns="http://www.w3.org/2000/svg" xmlns:cc="http://creativecommons.org/ns#" xmlns:dc="http://purl.org/dc/elements/1.1/" xmlns:rdf="http://www.w3.org/1999/02/22-rdf-syntax-ns#">
	<metadata id="b">
		<rdf:RDF>
			<cc:Work rdf:about="">
				<dc:format>image/svg+xml</dc:format>
				<dc:type rdf:resource="http://purl.org/dc/dcmitype/StillImage"/>
				<dc:title/>
			</cc:Work>
		</rdf:RDF>
	</metadata>
	<defs>
		<style id="current-color-scheme" type="text/css">.ColorScheme-Text{color:#090d11;}.ColorScheme-Background{color:#ffffff;}</style>
	</defs>
	<path id="c" d="m3 3c-0.5541 0-1 0.4459-1 1v14c0 0.5541 0.4459 1 1 1h16c0.5541 0 1-0.4459 1-1v-14c0-0.5541-0.4459-1-1-1zm1 1h2v1h-2zm4 0h2v1h-2zm4 0h2v1h-2zm4 0h2v1h-2zm-8 4h2v6h-2zm4 0h2v6h-2zm-8 9h2v1h-2zm4 0h2v1h-2zm4 0h2v1h-2zm4 0h2v1h-2z" style="fill:currentColor;fill-opacity:0.75;" class="ColorScheme-Text"/>
	<path id="a" d="m1 2v1h20v-1zm3 2v1h2v-1zm4 0v1h2v-1zm4 0v1h2v-1zm4 0v1h2v-1zm-8 4v6h2v-6zm4 0v6h2v-6zm-8 9v1h2v-1zm4 0v1h2v-1zm4 0v1h2v-1zm4 0v1h2v-1zm-15 2v1h20v-1z" style="fill:currentColor;fill-opacity:0.5;" class="ColorScheme-Background"/>
</svg>

<?xml version="1.0" encoding="UTF-8" standalone="no"?>
<!-- Created with Inkscape (http://www.inkscape.org/) -->

<svg
   xmlns:dc="http://purl.org/dc/elements/1.1/"
   xmlns:cc="http://creativecommons.org/ns#"
   xmlns:rdf="http://www.w3.org/1999/02/22-rdf-syntax-ns#"
   xmlns:svg="http://www.w3.org/2000/svg"
   xmlns="http://www.w3.org/2000/svg"
   xmlns:sodipodi="http://sodipodi.sourceforge.net/DTD/sodipodi-0.dtd"
   xmlns:inkscape="http://www.inkscape.org/namespaces/inkscape"
   width="22"
   height="22"
   version="1.1"
   id="svg24"
   sodipodi:docname="simplescreenrecorder-paused.svg"
   inkscape:version="0.92.2 5c3e80d, 2017-08-06">
  <sodipodi:namedview
     pagecolor="#ffffff"
     bordercolor="#666666"
     borderopacity="1"
     objecttolerance="10"
     gridtolerance="10"
     guidetolerance="10"
     inkscape:pageopacity="0"
     inkscape:pageshadow="2"
     inkscape:window-width="640"
     inkscape:window-height="480"
     id="namedview26"
     showgrid="false"
     inkscape:zoom="11.409091"
     inkscape:cx="17.880478"
     inkscape:cy="14.243028"
     inkscape:current-layer="svg24" />
  <defs
     id="defs12">
    <radialGradient
       id="a"
       cx="21"
       cy="1"
       r="10"
       gradientTransform="matrix(0,1.8,-1.5,0,12.5,-17.8)"
       gradientUnits="userSpaceOnUse">
      <stop
         stop-color="#ffffff"
         stop-opacity=".74858"
         offset="0"
         id="stop2" />
      <stop
         stop-color="#ffffff"
         stop-opacity=".60511"
         offset="1"
         id="stop4" />
    </radialGradient>
    <radialGradient
       id="b"
       cx="355.89"
       cy="-93.076"
       r="7.254"
       gradientTransform="matrix(1.179,0,0,1.141,-405.59,119.2)"
       gradientUnits="userSpaceOnUse">
      <stop
         stop-color="#213851"
         stop-opacity=".9059"
         offset="0"
         id="stop7" />
      <stop
         stop-color="#27303a"
         stop-opacity="0"
         offset="1"
         id="stop9" />
    </radialGradient>
  </defs>
  <metadata
     id="metadata14">
    <rdf:RDF>
      <cc:Work
         rdf:about="">
        <dc:format>image/svg+xml</dc:format>
        <dc:type
           rdf:resource="http://purl.org/dc/dcmitype/StillImage" />
        <dc:title></dc:title>
      </cc:Work>
    </rdf:RDF>
  </metadata>
  <path
     inkscape:connector-curvature="0"
     id="path16"
     style="fill:#090d11;fill-opacity:0.76620537;paint-order:normal;font-variant-east_asian:normal;opacity:1;vector-effect:none;stroke-width:1;stroke-linecap:butt;stroke-linejoin:miter;stroke-miterlimit:4;stroke-dasharray:none;stroke-dashoffset:0;stroke-opacity:1"
     d="M 3,3 C 2.4459,3 2,3.4459 2,4 v 14 c 0,0.5541 0.4459,1 1,1 h 16 c 0.5541,0 1,-0.4459 1,-1 V 4 C 20,3.4459 19.5541,3 19,3 Z M 4,4 H 6 V 5 H 4 Z m 4,0 h 2 V 5 H 8 Z m 4,0 h 2 v 1 h -2 z m 4,0 h 2 V 5 H 16 Z M 8,8 h 2 v 6 H 8 Z m 4,0 h 2 v 6 h -2 z m -8,9 h 2 v 1 H 4 Z m 4,0 h 2 v 1 H 8 Z m 4,0 h 2 v 1 h -2 z m 4,0 h 2 v 1 h -2 z" />
  <path
     inkscape:connector-curvature="0"
     id="path18"
     style="fill:url(#b);fill-opacity:0.75330003;paint-order:normal"
     d="M 3,3 C 2.4459,3 2,3.4459 2,4 v 14 c 0,0.5541 0.4459,1 1,1 h 16 c 0.5541,0 1,-0.4459 1,-1 V 4 C 20,3.4459 19.5541,3 19,3 Z M 4,4 H 6 V 5 H 4 Z m 4,0 h 2 V 5 H 8 Z m 4,0 h 2 v 1 h -2 z m 4,0 h 2 V 5 H 16 Z M 8,8 h 2 v 6 H 8 Z m 4,0 h 2 v 6 h -2 z m -8,9 h 2 v 1 H 4 Z m 4,0 h 2 v 1 H 8 Z m 4,0 h 2 v 1 h -2 z m 4,0 h 2 v 1 h -2 z" />
  <path
     inkscape:connector-curvature="0"
     id="path20"
     style="color:#000000;font-variant-ligatures:normal;font-variant-position:normal;font-variant-caps:normal;font-variant-numeric:normal;font-variant-alternates:normal;font-feature-settings:normal;text-indent:0;text-decoration:none;text-decoration-line:none;text-decoration-style:solid;text-decoration-color:#000000;text-transform:none;text-orientation:mixed;dominant-baseline:auto;white-space:normal;shape-padding:0;isolation:auto;mix-blend-mode:normal;solid-color:#000000;fill:url(#a);fill-opacity:0.99857998;paint-order:normal;color-rendering:auto;image-rendering:auto;shape-rendering:auto"
     dominant-baseline="auto"
     d="M 1,2 V 3 H 21 V 2 Z M 4,4 V 5 H 6 V 4 Z m 4,0 v 1 h 2 V 4 Z m 4,0 v 1 h 2 V 4 Z m 4,0 v 1 h 2 V 4 Z M 8,8 v 6 h 2 V 8 Z m 4,0 v 6 h 2 V 8 Z m -8,9 v 1 h 2 v -1 z m 4,0 v 1 h 2 v -1 z m 4,0 v 1 h 2 v -1 z m 4,0 v 1 h 2 V 17 Z M 1,19 v 1 h 20 v -1 z" />
</svg>
